!!!SOCIAL_FUNCTION:	songs of medicine men's dance
!!!PDT:	1956
!!!OTL: No_18_Song_of_Medicine_Men's_Dance_(d).krn
!!!LANG: Non-Tone
!!!LING_GROUP: Muskogean
!!!REG: Florida
**kern
*staff1
=1-
*clefF4
*k[b-]
*M7/8
4..c\
16d\LK
8c\
16d\L
16d\J
8c\J
=2||
*M4/8
8c\
8B-\
4A\
=3||
*M5/8
8B-\L
16.A\L
32A\JK
8A\
16c\L
16c\J
8A\J
=4||
*M2/4
4B-\
8A\L
8F\J
=5||
*M3/4
8A\L
8F\J
4F\
4F\
=6||
*M2/4
8F\L
8A\J
8A\L
8A\J
=7||
*M3/4
8A\L
8F\J
4F\
4F\
=8||
*M2/4
8C/L
8C/J
8C/
8r
=9||
*M3/4
8C/L
8F/J
4F\
4F\
=10||
*M2/4
8F\L
8B-\J
8B-\L
8A\J
=11||
*M3/4
8A\L
8F\J
4F\
4F\
=12||
*M2/4
8C/L
8C/J
8C/
8r
=13||
*M3/4
8C/L
8F/J
4F\
4F\
==
*-
